build/images/icons/services-3.svg

<svg width="49" height="49" viewBox="0 0 49 49" fill="none" xmlns="http://www.w3.org/2000/svg">
<path d="M47.962 45.0415H1.03803C0.464776 45.0415 0 44.5767 0 44.0035C0 43.4302 0.464776 42.9654 1.03803 42.9654H47.962C48.5352 42.9654 49 43.4302 49 44.0035C49 44.5767 48.5352 45.0415 47.962 45.0415ZM46.0582 40.3103C45.485 40.3103 45.0202 39.8455 45.0202 39.2723V16.3338H38.0288C37.4556 16.3338 36.9908 15.8691 36.9908 15.2958C36.9908 14.7226 37.4556 14.2578 38.0288 14.2578H46.0585C46.6317 14.2578 47.0965 14.7226 47.0965 15.2958C47.0965 15.3035 47.0965 15.3111 47.0963 15.3187V39.2723C47.0963 39.8455 46.6316 40.3103 46.0582 40.3103ZM37.0531 40.3103C36.4799 40.3103 36.0151 39.8455 36.0151 39.2723V27.5469C36.0151 26.9736 36.4799 26.5088 37.0531 26.5088C37.6264 26.5088 38.0911 26.9736 38.0911 27.5469V39.2723C38.0911 39.8455 37.6264 40.3103 37.0531 40.3103ZM28.6844 40.3103C28.1112 40.3103 27.6464 39.8455 27.6464 39.2723V27.5469C27.6464 26.9736 28.1112 26.5088 28.6844 26.5088C29.2577 26.5088 29.7224 26.9736 29.7224 27.5469V39.2723C29.7224 39.8455 29.2577 40.3103 28.6844 40.3103ZM20.3157 40.3103C19.7425 40.3103 19.2777 39.8455 19.2777 39.2723V27.5469C19.2777 26.9736 19.7425 26.5088 20.3157 26.5088C20.889 26.5088 21.3537 26.9736 21.3537 27.5469V39.2723C21.3537 39.8455 20.889 40.3103 20.3157 40.3103ZM11.947 40.3103C11.3738 40.3103 10.909 39.8455 10.909 39.2723V27.5469C10.909 26.9736 11.3738 26.5088 11.947 26.5088C12.5203 26.5088 12.9851 26.9736 12.9851 27.5469V39.2723C12.9851 39.8455 12.5203 40.3103 11.947 40.3103ZM2.94189 40.3103C2.36864 40.3103 1.90387 39.8455 1.90387 39.2723V15.3262C1.90361 15.3161 1.90348 15.3059 1.90348 15.2958C1.90348 14.7226 2.36826 14.2578 2.94151 14.2578H10.9714C11.5447 14.2578 12.0094 14.7226 12.0094 15.2958C12.0094 15.8691 11.5447 16.3338 10.9714 16.3338H3.97992V39.2723C3.97992 39.8455 3.51514 40.3103 2.94189 40.3103ZM41.6573 30.6032C41.084 30.6032 40.6192 30.1384 40.6192 29.5652V27.5469C40.6192 26.9736 41.084 26.5088 41.6573 26.5088C42.2305 26.5088 42.6953 26.9736 42.6953 27.5469V29.5652C42.6953 30.1385 42.2305 30.6032 41.6573 30.6032ZM7.34455 30.6032C6.7713 30.6032 6.30652 30.1384 6.30652 29.5652V27.5469C6.30652 26.9736 6.7713 26.5088 7.34455 26.5088C7.9178 26.5088 8.38258 26.9736 8.38258 27.5469V29.5652C8.38258 30.1385 7.91793 30.6032 7.34455 30.6032ZM41.6573 24.2731C41.084 24.2731 40.6192 23.8083 40.6192 23.235V21.2167C40.6192 20.6435 41.084 20.1787 41.6573 20.1787C42.2305 20.1787 42.6953 20.6435 42.6953 21.2167V23.235C42.6953 23.8083 42.2305 24.2731 41.6573 24.2731ZM7.34455 24.2731C6.7713 24.2731 6.30652 23.8083 6.30652 23.235V21.2167C6.30652 20.6435 6.7713 20.1787 7.34455 20.1787C7.9178 20.1787 8.38258 20.6435 8.38258 21.2167V23.235C8.38258 23.8083 7.91793 24.2731 7.34455 24.2731ZM37.0531 24.2728H11.947C11.3738 24.2728 10.909 23.808 10.909 23.2348C10.909 22.6615 11.3738 22.1967 11.947 22.1967H37.0532C37.6265 22.1967 38.0913 22.6615 38.0913 23.2348C38.0913 23.808 37.6265 24.2728 37.0531 24.2728ZM37.0526 20.7352C36.8978 20.7352 36.7407 20.7004 36.5925 20.6271L24.3882 14.5805L12.4145 20.6237C11.9027 20.8818 11.2785 20.6766 11.0201 20.1647C10.7617 19.6529 10.9673 19.0286 11.4791 18.7702L23.462 12.7224V4.9964C23.462 4.42315 23.9268 3.95837 24.5 3.95837H32.0036C32.5769 3.95837 33.0417 4.42315 33.0417 4.9964V8.91806C33.0417 9.49131 32.5769 9.95609 32.0036 9.95609H25.538V12.8332L37.5141 18.7667C38.0278 19.0212 38.2379 19.644 37.9834 20.1577C37.8023 20.5233 37.4346 20.7352 37.0526 20.7352ZM25.538 7.88003H30.9656V6.03443H25.538V7.88003Z" fill="#EAC57E"/>
<path d="M37.0531 24.2728H11.947C11.3737 24.2728 10.909 23.808 10.909 23.2348C10.909 22.6615 11.3737 22.1967 11.947 22.1967H37.0532C37.6264 22.1967 38.0912 22.6615 38.0912 23.2348C38.0912 23.808 37.6264 24.2728 37.0531 24.2728ZM37.0525 20.7352C36.8977 20.7352 36.7406 20.7004 36.5924 20.6271L24.3881 14.5805L12.4145 20.6237C11.9026 20.8818 11.2785 20.6766 11.02 20.1647C10.7617 19.6529 10.9672 19.0286 11.4791 18.7702L23.4619 12.7224V4.9964C23.4619 4.42315 23.9267 3.95837 24.5 3.95837H32.0036C32.5768 3.95837 33.0416 4.42315 33.0416 4.9964V8.91806C33.0416 9.49131 32.5768 9.95609 32.0036 9.95609H25.538V12.8332L37.5141 18.7667C38.0278 19.0212 38.2378 19.644 37.9834 20.1577C37.8022 20.5233 37.4345 20.7352 37.0525 20.7352ZM25.538 7.88003H30.9656V6.03443H25.538V7.88003Z" fill="#EAC57E"/>
</svg>

<svg width="49" height="49" fill="none" xmlns="http://www.w3.org/2000/svg"><path d="M47.962 45.041H1.038a1.038 1.038 0 010-2.076h46.924a1.038 1.038 0 010 2.076zm-1.904-4.73a1.038 1.038 0 01-1.038-1.039V16.334H38.03a1.038 1.038 0 010-2.076h8.03c.573 0 1.038.465 1.038 1.038v23.976c0 .574-.465 1.038-1.039 1.038zm-9.005 0a1.038 1.038 0 01-1.038-1.039V27.547a1.038 1.038 0 012.076 0v11.725c0 .574-.465 1.038-1.038 1.038zm-8.369 0a1.038 1.038 0 01-1.038-1.039V27.547a1.038 1.038 0 012.076 0v11.725c0 .574-.464 1.038-1.038 1.038zm-8.368 0a1.038 1.038 0 01-1.038-1.039V27.547a1.038 1.038 0 012.076 0v11.725c0 .574-.465 1.038-1.038 1.038zm-8.369 0a1.038 1.038 0 01-1.038-1.039V27.547a1.038 1.038 0 012.076 0v11.725c0 .574-.465 1.038-1.038 1.038zm-9.005 0a1.038 1.038 0 01-1.038-1.039V15.326v-.03c0-.573.464-1.038 1.038-1.038h8.03a1.038 1.038 0 010 2.076H3.98v22.938c0 .574-.465 1.038-1.038 1.038zm38.715-9.708a1.038 1.038 0 01-1.038-1.038v-2.018a1.038 1.038 0 012.076 0v2.018c0 .573-.465 1.038-1.038 1.038zm-34.312 0a1.038 1.038 0 01-1.038-1.038v-2.018a1.038 1.038 0 012.076 0v2.018c0 .573-.465 1.038-1.038 1.038zm34.312-6.33a1.038 1.038 0 01-1.038-1.038v-2.018a1.038 1.038 0 012.076 0v2.018c0 .573-.465 1.038-1.038 1.038zm-34.312 0a1.038 1.038 0 01-1.038-1.038v-2.018a1.038 1.038 0 012.076 0v2.018c0 .573-.465 1.038-1.038 1.038zm29.708 0H11.947a1.038 1.038 0 010-2.076h25.106a1.038 1.038 0 110 2.076zm0-3.538c-.155 0-.312-.035-.46-.108l-12.205-6.046-11.974 6.043a1.038 1.038 0 01-.935-1.854l11.983-6.048V4.996c0-.573.465-1.038 1.038-1.038h7.504c.573 0 1.038.465 1.038 1.038v3.922c0 .573-.465 1.038-1.038 1.038h-6.466v2.877l11.976 5.934a1.038 1.038 0 01-.461 1.968zM25.538 7.88h5.428V6.034h-5.428V7.88z" fill="#EAC57E"/><path d="M37.053 24.273H11.947a1.038 1.038 0 010-2.076h25.106a1.038 1.038 0 010 2.076zm0-3.538c-.155 0-.312-.035-.46-.108l-12.205-6.046-11.974 6.043a1.038 1.038 0 01-.935-1.854l11.983-6.048V4.996c0-.573.465-1.038 1.038-1.038h7.504c.573 0 1.038.465 1.038 1.038v3.922c0 .573-.465 1.038-1.038 1.038h-6.466v2.877l11.976 5.934a1.038 1.038 0 01-.462 1.968zM25.538 7.88h5.428V6.034h-5.428V7.88z" fill="#EAC57E"/></svg>
